X:1
T:Title
%%score { ( 1 3 ) | ( 2 4 ) }
L:1/8
Q:1/4=112
M:3/4
K:D
V:1 treble nm="Grand Piano"
V:3 treble 
V:2 bass 
V:4 bass 
V:1
 F2 E2 D2 | G2 F2 E2 | z2 F2 [DGB]2 | [DFA]2 [A,DF]4 | [A,DF]2 [A,CE]2 [A,D]2 | [CA]2 z2 z2 | %6
w: E.~O.~Sellers * *||||||
 E2 F2 ^G2 | [DB]2 [CA]4 | [CA]2 [D^G]2 [E=G]2 | [DF]2 [EG]2 [FA]2 | [GB]2 [FA]4 | B2 ^A2 B2 | %12
w: ||||||
 d2 c2 [DGB]2 | [DFA]4 z2 | [F,D]2 [A,DF]2 [DFA]2 | G2- [G^A]2 B2 | c2 B2 [Gc]2 | d2 A2 [B,EG]2 | %18
w: ||||||
 [DF]4[K:bass] [G,CE]2[Q:1/4=110][Q:1/4=109][Q:1/4=107][Q:1/4=105][Q:1/4=104][Q:1/4=102][Q:1/4=100][Q:1/4=99][Q:1/4=97][Q:1/4=96][Q:1/4=94][Q:1/4=92][Q:1/4=91][Q:1/4=89][Q:1/4=87][Q:1/4=86] | %19
w: |
 [F,D]6 |] %20
w: |
V:2
 [D,A,D]2 [D,G,D]2 [D,F,]2 | [D,B,D]2 [D,A,D]2 [D,G,D]2 | F,2 A,2 D,2 | D,2 D,4 | D,2 G,2 F,2 | %5
 E,2 C,2 [D,A,D]2 | [E,^G,D]2 [E,G,D]2 [E,B,D]2 | [A,,A,]2 [A,,E,]4 | [A,,E,]2 [B,,E,]2 [C,A,]2 | %9
 [D,A,]4 [D,D]2 | [D,D]2 [D,D]4 | [G,DG]2 [G,CG]2 [G,DG]2 | [G,G]2- [G,CG]2[K:bass] G,2 | D,4 z2 | %14
 D,2 D,2 D,2 | z2 C2 [G,DG]2 | A,4 z2 | A,2 z2 z2 | A,4 A,,2 | D,6 |] %20
V:3
 x6 | x6 | D4 z2 | x6 | x6 | A,2- [A,EG]2 F2 | x6 | x6 | x6 | x6 | x6 | x6 | x6 | x6 | x6 | %15
 [DB]2 z2 z2 | G4 z2 | F4 z2 | x4[K:bass] x2 | x6 |] %20
V:4
 x6 | x6 | D,4 z2 | x6 | x6 | x6 | x6 | x6 | x6 | x6 | x6 | x6 | B,2 z2[K:bass] z2 | x6 | x6 | %15
 G,4 z2 | E,2 C,2 [A,,A,]2 | D,2- [D,D]2 G,2 | x6 | x6 |] %20

